X: 33951
T: Redeside, The
R: hornpipe
M: 4/4
K: Gmajor
e>d|c>EG>c e>Gc>B|A>cf>a g>ec>B|A>cF>A G>cf>e|(3def (3edc (3BAG (3fed|
c>eG>c e>Gc>B|A>cf>a g>ec>B|A>c'b>a (3gag (3fed|c>c'g>e c2:|
e>f|(3gag e>g c'>ge>g|~a>ge>c A>GE>F|(3GAG E>G c>Gf>e|(3def (3edc (3BAG e>f|
(3gag e>g c'>ge>g|~a>ge>c A>GE>F|G>c'b>a (3gag (3fed|c>c'g>e c2e>f|
(3gag e>g c'>ge>g|~a>ge>c A>GE>F|(3GAG E>G c>Gf>e|(3def (3edc (3BAG (3fed|
c>eG>c e>Gc>B|A>cf>a g>ec>B|A>c'b>a (3gag (3fed|c>c'g>e c2||
B>A|G>B,D>G B>DG>F|E>Gc>e d>BG>F|E>GC>E D>Gc>B|(3ABc (3BAG (3FED (3cBA|
G>BD>G B>DG>F|E>Gc>e d>BG>F|E>gf>e (3ded (3cBA|G>gd>B G2:|
B>c|(3ded B>d g>dB>d|~e>dB>G E>DB,>C|(3DED B,>D G>Dc>B|(3ABc (3BAG (3FED B>c|
(3ded B>d g>dB>d|~e>dB>G E>DB,>C|D>gf>e (3ded (3cBA|G>gd>B G2B>c|
(3ded B>d g>dB>d|~e>dB>G E>DB,>C|(3DED B,>D G>Dc>B|(3ABc (3BAG (3FED (3cBA|
G>BD>G B>DG>F|E>Gc>e d>BG>F|E>gf>e (3ded (3cBA|G>gd>B G2||
BA|GB,DG BDGF|EGce dBGF|EGCE DGcB|(3ABc (3BAG (3FED (3cBA|
GBDG BDGF|EGce dBGF|Egfe (3ded (3cBA|GgdB G2:|
Bc|(3ded Bd gdBd|~edBG EDB,C|(3DED B,D GDcB|(3ABc (3BAG (3FED Bc|
(3ded Bd gdBd|~edBG EDB,C|Dgfe (3ded (3cBA|GgdB G2Bc|
(3ded Bd gdBd|~edBG EDB,C|(3DED B,D GDcB|(3ABc (3BAG (3FED (3cBA|
GBDG BDGF|EGce dBGF|Egfe (3ded (3cBA|GgdB G2||

